icons/op-arrow-in-24.svg

<svg width="24" height="24" viewBox="0 0 24 24" fill="none" xmlns="http://www.w3.org/2000/svg">
<path fill-rule="evenodd" clip-rule="evenodd" d="M5.34459 4C6.08719 4 6.68919 4.62043 6.68919 5.38577V9.06755C6.68919 10.5982 7.89318 11.8391 9.37838 11.8391H15.4093L12 8.32543C11.4749 7.78425 11.4749 6.90683 12 6.36565C12.5251 5.82448 13.3764 5.82448 13.9015 6.36565L19.6062 12.245C19.8583 12.5049 20 12.8573 20 13.2249C20 13.5924 19.8583 13.9449 19.6062 14.2047L14.3769 19.5941C13.8518 20.1353 13.0005 20.1353 12.4754 19.5941C11.9503 19.0529 11.9503 18.1755 12.4754 17.6343L15.4093 14.6106H9.37838C6.40798 14.6106 4 12.1289 4 9.06755V5.38577C4 4.62043 4.602 4 5.34459 4Z" fill="black"/>
</svg>

<svg xmlns="http://www.w3.org/2000/svg" width="24" height="24" viewBox="0 0 24 24"><path d="M5.345 4c.742 0 1.344.62 1.344 1.386v3.682c0 1.53 1.204 2.771 2.689 2.771h6.031L12 8.325a1.415 1.415 0 0 1 0-1.959 1.315 1.315 0 0 1 1.901 0l5.705 5.879c.252.26.394.612.394.98 0 .367-.142.72-.394.98l-5.229 5.389a1.317 1.317 0 0 1-1.902 0 1.416 1.416 0 0 1 0-1.96l2.934-3.023H9.378C6.408 14.611 4 12.129 4 9.068V5.386C4 4.62 4.602 4 5.345 4Z"/></svg>
